images/28197.svg

<?xml version="1.0" encoding="UTF-8"?>
<svg xmlns="http://www.w3.org/2000/svg" xmlns:xlink="http://www.w3.org/1999/xlink" width="300pt" height="300pt" viewBox="0 0 300 300" version="1.1">
<defs>
<g>
<symbol overflow="visible" id="glyph0-0">
<path style="stroke:none;" d="M 0.796875 2.828125 L 0.796875 -11.28125 L 8.796875 -11.28125 L 8.796875 2.828125 Z M 1.703125 1.9375 L 7.90625 1.9375 L 7.90625 -10.390625 L 1.703125 -10.390625 Z M 1.703125 1.9375 "/>
</symbol>
<symbol overflow="visible" id="glyph0-1">
<path style="stroke:none;" d="M 1.578125 -11.671875 L 8.28125 -11.671875 L 8.28125 -10.34375 L 3.15625 -10.34375 L 3.15625 -6.90625 L 7.78125 -6.90625 L 7.78125 -5.578125 L 3.15625 -5.578125 L 3.15625 0 L 1.578125 0 Z M 1.578125 -11.671875 "/>
</symbol>
<symbol overflow="visible" id="glyph0-2">
<path style="stroke:none;" d="M 1.578125 -11.671875 L 3.703125 -11.671875 L 8.875 -1.90625 L 8.875 -11.671875 L 10.40625 -11.671875 L 10.40625 0 L 8.28125 0 L 3.109375 -9.765625 L 3.109375 0 L 1.578125 0 Z M 1.578125 -11.671875 "/>
</symbol>
<symbol overflow="visible" id="glyph0-3">
<path style="stroke:none;" d="M 1.578125 -11.671875 L 3.15625 -11.671875 L 3.15625 -6.890625 L 8.890625 -6.890625 L 8.890625 -11.671875 L 10.46875 -11.671875 L 10.46875 0 L 8.890625 0 L 8.890625 -5.5625 L 3.15625 -5.5625 L 3.15625 0 L 1.578125 0 Z M 1.578125 -11.671875 "/>
</symbol>
<symbol overflow="visible" id="glyph0-4">
<path style="stroke:none;" d="M 6.3125 -10.59375 C 5.164062 -10.59375 4.253906 -10.164062 3.578125 -9.3125 C 2.898438 -8.457031 2.5625 -7.296875 2.5625 -5.828125 C 2.5625 -4.359375 2.898438 -3.195312 3.578125 -2.34375 C 4.253906 -1.488281 5.164062 -1.0625 6.3125 -1.0625 C 7.457031 -1.0625 8.363281 -1.488281 9.03125 -2.34375 C 9.695312 -3.195312 10.03125 -4.359375 10.03125 -5.828125 C 10.03125 -7.296875 9.695312 -8.457031 9.03125 -9.3125 C 8.363281 -10.164062 7.457031 -10.59375 6.3125 -10.59375 Z M 6.3125 -11.875 C 7.945312 -11.875 9.253906 -11.328125 10.234375 -10.234375 C 11.210938 -9.140625 11.703125 -7.671875 11.703125 -5.828125 C 11.703125 -3.984375 11.210938 -2.507812 10.234375 -1.40625 C 9.253906 -0.3125 7.945312 0.234375 6.3125 0.234375 C 4.664062 0.234375 3.351562 -0.3125 2.375 -1.40625 C 1.394531 -2.507812 0.90625 -3.984375 0.90625 -5.828125 C 0.90625 -7.671875 1.394531 -9.140625 2.375 -10.234375 C 3.351562 -11.328125 4.664062 -11.875 6.3125 -11.875 Z M 6.3125 -11.875 "/>
</symbol>
</g>
</defs>
<g id="surface21125">
<rect x="0" y="0" width="300" height="300" style="fill:rgb(100%,100%,100%);fill-opacity:1;stroke:none;"/>
<path style="fill:none;stroke-width:1.2;stroke-linecap:butt;stroke-linejoin:miter;stroke:rgb(20%,80%,80%);stroke-opacity:1;stroke-miterlimit:10;" d="M 72.75 256.34375 L 71.386719 237.265625 "/>
<path style="fill:none;stroke-width:1.2;stroke-linecap:butt;stroke-linejoin:miter;stroke:rgb(0%,0%,0%);stroke-opacity:1;stroke-miterlimit:10;" d="M 71.386719 237.265625 L 70.023438 218.191406 "/>
<path style=" stroke:none;fill-rule:nonzero;fill:rgb(100%,100%,100%);fill-opacity:1;" d="M 67.75 246.84375 L 77.75 246.84375 L 77.75 265.84375 L 67.75 265.84375 Z M 67.75 246.84375 "/>
<g style="fill:rgb(20%,80%,80%);fill-opacity:1;">
  <use xlink:href="#glyph0-1" x="67.75" y="261.695312"/>
</g>
<path style="fill:none;stroke-width:1.2;stroke-linecap:butt;stroke-linejoin:miter;stroke:rgb(0%,0%,0%);stroke-opacity:1;stroke-miterlimit:10;" d="M 70.023438 218.191406 L 35.617188 201.476562 "/>
<path style="fill:none;stroke-width:1.2;stroke-linecap:butt;stroke-linejoin:miter;stroke:rgb(0%,0%,0%);stroke-opacity:1;stroke-miterlimit:10;" d="M 70.515625 208.421875 L 42.988281 195.054688 "/>
<path style="fill:none;stroke-width:1.2;stroke-linecap:butt;stroke-linejoin:miter;stroke:rgb(0%,0%,0%);stroke-opacity:1;stroke-miterlimit:10;" d="M 101.699219 196.75 L 70.023438 218.191406 "/>
<path style="fill:none;stroke-width:1.2;stroke-linecap:butt;stroke-linejoin:miter;stroke:rgb(0%,0%,0%);stroke-opacity:1;stroke-miterlimit:10;" d="M 35.617188 201.476562 L 32.886719 163.324219 "/>
<path style="fill:none;stroke-width:1.2;stroke-linecap:butt;stroke-linejoin:miter;stroke:rgb(0%,0%,0%);stroke-opacity:1;stroke-miterlimit:10;" d="M 32.886719 163.324219 L 64.566406 141.886719 "/>
<path style="fill:none;stroke-width:1.2;stroke-linecap:butt;stroke-linejoin:miter;stroke:rgb(0%,0%,0%);stroke-opacity:1;stroke-miterlimit:10;" d="M 41.101562 168.632812 L 66.441406 151.480469 "/>
<path style="fill:none;stroke-width:1.2;stroke-linecap:butt;stroke-linejoin:miter;stroke:rgb(0%,0%,0%);stroke-opacity:1;stroke-miterlimit:10;" d="M 64.566406 141.886719 L 98.96875 158.597656 "/>
<path style="fill:none;stroke-width:1.2;stroke-linecap:butt;stroke-linejoin:miter;stroke:rgb(0%,0%,0%);stroke-opacity:1;stroke-miterlimit:10;" d="M 64.566406 141.886719 L 61.835938 103.730469 "/>
<path style="fill:none;stroke-width:1.2;stroke-linecap:butt;stroke-linejoin:miter;stroke:rgb(0%,0%,0%);stroke-opacity:1;stroke-miterlimit:10;" d="M 98.96875 158.597656 L 101.699219 196.75 "/>
<path style="fill:none;stroke-width:1.2;stroke-linecap:butt;stroke-linejoin:miter;stroke:rgb(0%,0%,0%);stroke-opacity:1;stroke-miterlimit:10;" d="M 90.265625 163.054688 L 92.449219 193.578125 "/>
<path style="fill:none;stroke-width:1.2;stroke-linecap:butt;stroke-linejoin:miter;stroke:rgb(0%,0%,0%);stroke-opacity:1;stroke-miterlimit:10;" d="M 61.835938 103.730469 L 45.601562 93.625 "/>
<path style="fill:none;stroke-width:1.2;stroke-linecap:butt;stroke-linejoin:miter;stroke:rgb(0%,0%,100%);stroke-opacity:1;stroke-miterlimit:10;" d="M 45.601562 93.625 L 29.367188 83.515625 "/>
<path style="fill:none;stroke-width:1.2;stroke-linecap:butt;stroke-linejoin:miter;stroke:rgb(0%,0%,0%);stroke-opacity:1;stroke-miterlimit:10;" d="M 91.097656 79.097656 L 61.835938 103.730469 "/>
<path style="fill:none;stroke-width:1.2;stroke-linecap:butt;stroke-linejoin:miter;stroke:rgb(0%,0%,0%);stroke-opacity:1;stroke-miterlimit:10;" d="M 82.375 74.675781 L 58.964844 94.382812 "/>
<path style="fill:none;stroke-width:1.2;stroke-linecap:butt;stroke-linejoin:miter;stroke:rgb(0%,0%,100%);stroke-opacity:1;stroke-miterlimit:10;" d="M 29.367188 83.515625 L 33.964844 64.949219 "/>
<path style="fill:none;stroke-width:1.2;stroke-linecap:butt;stroke-linejoin:miter;stroke:rgb(0%,0%,0%);stroke-opacity:1;stroke-miterlimit:10;" d="M 33.964844 64.949219 L 38.5625 46.386719 "/>
<path style=" stroke:none;fill-rule:nonzero;fill:rgb(100%,100%,100%);fill-opacity:1;" d="M 17.367188 74.015625 L 41.367188 74.015625 L 41.367188 93.015625 L 17.367188 93.015625 Z M 17.367188 74.015625 "/>
<g style="fill:rgb(0%,0%,100%);fill-opacity:1;">
  <use xlink:href="#glyph0-2" x="17.367188" y="88.867188"/>
  <use xlink:href="#glyph0-3" x="29.335938" y="88.867188"/>
</g>
<path style="fill:none;stroke-width:1.2;stroke-linecap:butt;stroke-linejoin:miter;stroke:rgb(0%,0%,0%);stroke-opacity:1;stroke-miterlimit:10;" d="M 38.5625 46.386719 L 57.636719 45.023438 "/>
<path style="fill:none;stroke-width:1.2;stroke-linecap:butt;stroke-linejoin:miter;stroke:rgb(0%,0%,100%);stroke-opacity:1;stroke-miterlimit:10;" d="M 57.636719 45.023438 L 76.714844 43.65625 "/>
<path style="fill:none;stroke-width:1.2;stroke-linecap:butt;stroke-linejoin:miter;stroke:rgb(0%,0%,0%);stroke-opacity:1;stroke-miterlimit:10;" d="M 43.019531 55.089844 L 58.28125 54 "/>
<path style="fill:none;stroke-width:1.2;stroke-linecap:butt;stroke-linejoin:miter;stroke:rgb(0%,0%,100%);stroke-opacity:1;stroke-miterlimit:10;" d="M 58.28125 54 L 73.539062 52.90625 "/>
<path style="fill:none;stroke-width:1.2;stroke-linecap:butt;stroke-linejoin:miter;stroke:rgb(0%,0%,100%);stroke-opacity:1;stroke-miterlimit:10;" d="M 76.714844 43.65625 L 83.90625 61.378906 "/>
<path style="fill:none;stroke-width:1.2;stroke-linecap:butt;stroke-linejoin:miter;stroke:rgb(0%,0%,0%);stroke-opacity:1;stroke-miterlimit:10;" d="M 83.90625 61.378906 L 91.097656 79.097656 "/>
<path style=" stroke:none;fill-rule:nonzero;fill:rgb(100%,100%,100%);fill-opacity:1;" d="M 70.714844 34.15625 L 82.714844 34.15625 L 82.714844 53.15625 L 70.714844 53.15625 Z M 70.714844 34.15625 "/>
<g style="fill:rgb(0%,0%,100%);fill-opacity:1;">
  <use xlink:href="#glyph0-2" x="70.714844" y="49.007812"/>
</g>
<path style="fill:none;stroke-width:1.2;stroke-linecap:butt;stroke-linejoin:miter;stroke:rgb(0%,0%,0%);stroke-opacity:1;stroke-miterlimit:10;" d="M 91.097656 79.097656 L 128.226562 88.292969 "/>
<path style="fill:none;stroke-width:1.2;stroke-linecap:butt;stroke-linejoin:miter;stroke:rgb(0%,0%,0%);stroke-opacity:1;stroke-miterlimit:10;" d="M 128.226562 88.292969 L 138.828125 125.046875 "/>
<path style="fill:none;stroke-width:1.2;stroke-linecap:butt;stroke-linejoin:miter;stroke:rgb(0%,0%,0%);stroke-opacity:1;stroke-miterlimit:10;" d="M 137.933594 89.476562 L 146.414062 118.875 "/>
<path style="fill:none;stroke-width:1.2;stroke-linecap:butt;stroke-linejoin:miter;stroke:rgb(0%,0%,0%);stroke-opacity:1;stroke-miterlimit:10;" d="M 154.753906 60.738281 L 128.226562 88.292969 "/>
<path style="fill:none;stroke-width:1.2;stroke-linecap:butt;stroke-linejoin:miter;stroke:rgb(0%,0%,0%);stroke-opacity:1;stroke-miterlimit:10;" d="M 138.828125 125.046875 L 175.957031 134.242188 "/>
<path style="fill:none;stroke-width:1.2;stroke-linecap:butt;stroke-linejoin:miter;stroke:rgb(0%,0%,0%);stroke-opacity:1;stroke-miterlimit:10;" d="M 175.957031 134.242188 L 184.960938 151.113281 "/>
<path style="fill:none;stroke-width:1.2;stroke-linecap:butt;stroke-linejoin:miter;stroke:rgb(0%,0%,100%);stroke-opacity:1;stroke-miterlimit:10;" d="M 184.960938 151.113281 L 193.96875 167.984375 "/>
<path style="fill:none;stroke-width:1.2;stroke-linecap:butt;stroke-linejoin:miter;stroke:rgb(0%,0%,0%);stroke-opacity:1;stroke-miterlimit:10;" d="M 202.484375 106.683594 L 175.957031 134.242188 "/>
<path style="fill:none;stroke-width:1.2;stroke-linecap:butt;stroke-linejoin:miter;stroke:rgb(0%,0%,0%);stroke-opacity:1;stroke-miterlimit:10;" d="M 193.347656 103.199219 L 172.125 125.242188 "/>
<path style="fill:none;stroke-width:1.2;stroke-linecap:butt;stroke-linejoin:miter;stroke:rgb(0%,0%,100%);stroke-opacity:1;stroke-miterlimit:10;" d="M 193.96875 167.984375 L 185.609375 185.1875 "/>
<path style="fill:none;stroke-width:1.2;stroke-linecap:butt;stroke-linejoin:miter;stroke:rgb(0%,0%,0%);stroke-opacity:1;stroke-miterlimit:10;" d="M 185.609375 185.1875 L 177.253906 202.390625 "/>
<path style="fill:none;stroke-width:1.2;stroke-linecap:butt;stroke-linejoin:miter;stroke:rgb(0%,0%,100%);stroke-opacity:1;stroke-miterlimit:10;" d="M 193.96875 167.984375 L 212.796875 164.632812 "/>
<path style="fill:none;stroke-width:1.2;stroke-linecap:butt;stroke-linejoin:miter;stroke:rgb(0%,0%,0%);stroke-opacity:1;stroke-miterlimit:10;" d="M 212.796875 164.632812 L 231.625 161.28125 "/>
<path style=" stroke:none;fill-rule:nonzero;fill:rgb(100%,100%,100%);fill-opacity:1;" d="M 187.96875 158.484375 L 199.96875 158.484375 L 199.96875 177.484375 L 187.96875 177.484375 Z M 187.96875 158.484375 "/>
<g style="fill:rgb(0%,0%,100%);fill-opacity:1;">
  <use xlink:href="#glyph0-2" x="187.96875" y="173.335938"/>
</g>
<path style="fill:none;stroke-width:1.2;stroke-linecap:butt;stroke-linejoin:miter;stroke:rgb(0%,0%,0%);stroke-opacity:1;stroke-miterlimit:10;" d="M 228.503906 164.523438 L 242.285156 177.789062 "/>
<path style="fill:none;stroke-width:1.2;stroke-linecap:butt;stroke-linejoin:miter;stroke:rgb(100%,0%,0%);stroke-opacity:1;stroke-miterlimit:10;" d="M 242.285156 177.789062 L 256.0625 191.050781 "/>
<path style="fill:none;stroke-width:1.2;stroke-linecap:butt;stroke-linejoin:miter;stroke:rgb(0%,0%,0%);stroke-opacity:1;stroke-miterlimit:10;" d="M 234.746094 158.042969 L 248.523438 171.304688 "/>
<path style="fill:none;stroke-width:1.2;stroke-linecap:butt;stroke-linejoin:miter;stroke:rgb(100%,0%,0%);stroke-opacity:1;stroke-miterlimit:10;" d="M 248.523438 171.304688 L 262.304688 184.566406 "/>
<path style="fill:none;stroke-width:1.2;stroke-linecap:butt;stroke-linejoin:miter;stroke:rgb(0%,0%,0%);stroke-opacity:1;stroke-miterlimit:10;" d="M 231.625 161.28125 L 234.257812 142.339844 "/>
<path style="fill:none;stroke-width:1.2;stroke-linecap:butt;stroke-linejoin:miter;stroke:rgb(0%,0%,100%);stroke-opacity:1;stroke-miterlimit:10;" d="M 234.257812 142.339844 L 236.890625 123.398438 "/>
<path style=" stroke:none;fill-rule:nonzero;fill:rgb(100%,100%,100%);fill-opacity:1;" d="M 253.183594 178.308594 L 266.183594 178.308594 L 266.183594 197.308594 L 253.183594 197.308594 Z M 253.183594 178.308594 "/>
<g style="fill:rgb(100%,0%,0%);fill-opacity:1;">
  <use xlink:href="#glyph0-4" x="253.183594" y="193.160156"/>
</g>
<path style="fill:none;stroke-width:1.2;stroke-linecap:butt;stroke-linejoin:miter;stroke:rgb(0%,0%,100%);stroke-opacity:1;stroke-miterlimit:10;" d="M 236.890625 123.398438 L 219.6875 115.039062 "/>
<path style="fill:none;stroke-width:1.2;stroke-linecap:butt;stroke-linejoin:miter;stroke:rgb(0%,0%,0%);stroke-opacity:1;stroke-miterlimit:10;" d="M 219.6875 115.039062 L 202.484375 106.683594 "/>
<path style="fill:none;stroke-width:1.2;stroke-linecap:butt;stroke-linejoin:miter;stroke:rgb(0%,0%,100%);stroke-opacity:1;stroke-miterlimit:10;" d="M 236.890625 123.398438 L 253.761719 114.390625 "/>
<path style="fill:none;stroke-width:1.2;stroke-linecap:butt;stroke-linejoin:miter;stroke:rgb(0%,0%,0%);stroke-opacity:1;stroke-miterlimit:10;" d="M 253.761719 114.390625 L 270.632812 105.386719 "/>
<path style=" stroke:none;fill-rule:nonzero;fill:rgb(100%,100%,100%);fill-opacity:1;" d="M 230.890625 113.898438 L 242.890625 113.898438 L 242.890625 132.898438 L 230.890625 132.898438 Z M 230.890625 113.898438 "/>
<g style="fill:rgb(0%,0%,100%);fill-opacity:1;">
  <use xlink:href="#glyph0-2" x="230.890625" y="128.75"/>
</g>
<path style="fill:none;stroke-width:1.2;stroke-linecap:butt;stroke-linejoin:miter;stroke:rgb(0%,0%,0%);stroke-opacity:1;stroke-miterlimit:10;" d="M 202.484375 106.683594 L 191.882812 69.933594 "/>
<path style="fill:none;stroke-width:1.2;stroke-linecap:butt;stroke-linejoin:miter;stroke:rgb(0%,0%,0%);stroke-opacity:1;stroke-miterlimit:10;" d="M 191.882812 69.933594 L 154.753906 60.738281 "/>
<path style="fill:none;stroke-width:1.2;stroke-linecap:butt;stroke-linejoin:miter;stroke:rgb(0%,0%,0%);stroke-opacity:1;stroke-miterlimit:10;" d="M 186.007812 77.75 L 156.304688 70.394531 "/>
</g>
</svg>

<svg xmlns="http://www.w3.org/2000/svg" xmlns:xlink="http://www.w3.org/1999/xlink" width="300pt" height="300pt" viewBox="0 0 300 300"><defs><symbol overflow="visible"><path d="M.797 2.828v-14.11h8V2.83zm.906-.89h6.203v-12.33H1.703zm0 0"/></symbol><symbol overflow="visible" id="a"><path d="M1.578-11.672H8.28v1.328H3.157v3.438H7.78v1.328H3.157V0H1.578zm0 0"/></symbol><symbol overflow="visible" id="b"><path d="M1.578-11.672h2.125l5.172 9.766v-9.766h1.53V0H8.282L3.11-9.766V0H1.577zm0 0"/></symbol><symbol overflow="visible" id="c"><path d="M1.578-11.672h1.578v4.78H8.89v-4.78h1.58V0H8.89v-5.563H3.157V0H1.578zm0 0"/></symbol><symbol overflow="visible" id="d"><path d="M6.313-10.594c-1.15 0-2.06.43-2.735 1.28-.68.857-1.015 2.017-1.015 3.486 0 1.47.335 2.633 1.015 3.484.676.856 1.586 1.28 2.735 1.28 1.144.002 2.05-.424 2.718-1.28.665-.85 1-2.015 1-3.484 0-1.47-.335-2.63-1-3.484-.667-.852-1.573-1.282-2.717-1.282zm0-1.28c1.632 0 2.94.546 3.92 1.64.978 1.093 1.47 2.562 1.47 4.406 0 1.844-.492 3.32-1.47 4.422-.98 1.093-2.288 1.64-3.92 1.64-1.65 0-2.96-.546-3.938-1.64-.98-1.102-1.47-2.578-1.47-4.422 0-1.844.49-3.313 1.47-4.406.977-1.094 2.29-1.64 3.938-1.64zm0 0"/></symbol></defs><g><path fill="#fff" d="M0 0h300v300H0z"/><path d="M72.75 256.344l-1.363-19.078" stroke-width="1.2" stroke="#3cc" stroke-miterlimit="10" fill="none"/><path d="M71.387 237.266l-1.364-19.075" stroke-width="1.2" stroke="#000" stroke-miterlimit="10" fill="none"/><path d="M67.75 246.844h10v19h-10zm0 0" fill="#fff"/><use xlink:href="#a" x="67.75" y="261.695" fill="#3cc"/><path d="M70.023 218.19l-34.406-16.713M70.516 208.422l-27.528-13.367M101.7 196.75l-31.677 21.44M35.617 201.477l-2.73-38.153M32.887 163.324l31.68-21.437M41.102 168.633l25.34-17.153M64.566 141.887l34.403 16.71M64.566 141.887l-2.73-38.157M98.97 158.598l2.73 38.152M90.266 163.055l2.183 30.523M61.836 103.73L45.602 93.625" stroke-width="1.2" stroke="#000" stroke-miterlimit="10" fill="none"/><path d="M45.602 93.625l-16.235-10.11" stroke-width="1.2" stroke="#00f" stroke-miterlimit="10" fill="none"/><path d="M91.098 79.098L61.836 103.73M82.375 74.676l-23.41 19.707" stroke-width="1.2" stroke="#000" stroke-miterlimit="10" fill="none"/><path d="M29.367 83.516l4.598-18.567" stroke-width="1.2" stroke="#00f" stroke-miterlimit="10" fill="none"/><path d="M33.965 64.95l4.597-18.563" stroke-width="1.2" stroke="#000" stroke-miterlimit="10" fill="none"/><path d="M17.367 74.016h24v19h-24zm0 0" fill="#fff"/><g fill="#00f"><use xlink:href="#b" x="17.367" y="88.867"/><use xlink:href="#c" x="29.336" y="88.867"/></g><path d="M38.563 46.387l19.074-1.364" stroke-width="1.2" stroke="#000" stroke-miterlimit="10" fill="none"/><path d="M57.637 45.023l19.078-1.367" stroke-width="1.2" stroke="#00f" stroke-miterlimit="10" fill="none"/><path d="M43.02 55.09L58.28 54" stroke-width="1.2" stroke="#000" stroke-miterlimit="10" fill="none"/><path d="M58.28 54l15.26-1.094M76.715 43.656l7.19 17.723" stroke-width="1.2" stroke="#00f" stroke-miterlimit="10" fill="none"/><path d="M83.906 61.38l7.192 17.718" stroke-width="1.2" stroke="#000" stroke-miterlimit="10" fill="none"/><path d="M70.715 34.156h12v19h-12zm0 0" fill="#fff"/><use xlink:href="#b" x="70.715" y="49.008" fill="#00f"/><path d="M91.098 79.098l37.13 9.195M128.227 88.293l10.6 36.754M137.934 89.477l8.48 29.398M154.754 60.738l-26.527 27.555M138.828 125.047l37.13 9.195M175.957 134.242l9.004 16.87" stroke-width="1.2" stroke="#000" stroke-miterlimit="10" fill="none"/><path d="M184.96 151.113l9.01 16.87" stroke-width="1.2" stroke="#00f" stroke-miterlimit="10" fill="none"/><path d="M202.484 106.684l-26.527 27.558M193.348 103.2l-21.223 22.042" stroke-width="1.2" stroke="#000" stroke-miterlimit="10" fill="none"/><path d="M193.97 167.984l-8.36 17.203" stroke-width="1.2" stroke="#00f" stroke-miterlimit="10" fill="none"/><path d="M185.61 185.188l-8.356 17.203" stroke-width="1.2" stroke="#000" stroke-miterlimit="10" fill="none"/><path d="M193.97 167.984l18.827-3.35" stroke-width="1.2" stroke="#00f" stroke-miterlimit="10" fill="none"/><path d="M212.797 164.633l18.828-3.352" stroke-width="1.2" stroke="#000" stroke-miterlimit="10" fill="none"/><path d="M187.97 158.484h12v19h-12zm0 0" fill="#fff"/><use xlink:href="#b" x="187.969" y="173.336" fill="#00f"/><path d="M228.504 164.523l13.78 13.266" stroke-width="1.2" stroke="#000" stroke-miterlimit="10" fill="none"/><path d="M242.285 177.79l13.778 13.26" stroke-width="1.2" stroke="#f00" stroke-miterlimit="10" fill="none"/><path d="M234.746 158.043l13.777 13.262" stroke-width="1.2" stroke="#000" stroke-miterlimit="10" fill="none"/><path d="M248.523 171.305l13.782 13.26" stroke-width="1.2" stroke="#f00" stroke-miterlimit="10" fill="none"/><path d="M231.625 161.28l2.633-18.94" stroke-width="1.2" stroke="#000" stroke-miterlimit="10" fill="none"/><path d="M234.258 142.34l2.633-18.942" stroke-width="1.2" stroke="#00f" stroke-miterlimit="10" fill="none"/><path d="M253.184 178.31h13v19h-13zm0 0" fill="#fff"/><use xlink:href="#d" x="253.184" y="193.16" fill="#f00"/><path d="M236.89 123.398l-17.202-8.36" stroke-width="1.2" stroke="#00f" stroke-miterlimit="10" fill="none"/><path d="M219.688 115.04l-17.204-8.356" stroke-width="1.2" stroke="#000" stroke-miterlimit="10" fill="none"/><path d="M236.89 123.398l16.872-9.007" stroke-width="1.2" stroke="#00f" stroke-miterlimit="10" fill="none"/><path d="M253.762 114.39l16.87-9.003" stroke-width="1.2" stroke="#000" stroke-miterlimit="10" fill="none"/><path d="M230.89 113.898h12v19h-12zm0 0" fill="#fff"/><use xlink:href="#b" x="230.891" y="128.75" fill="#00f"/><path d="M202.484 106.684l-10.6-36.75M191.883 69.934l-37.13-9.196M186.008 77.75l-29.703-7.355" stroke-width="1.2" stroke="#000" stroke-miterlimit="10" fill="none"/></g></svg>
